app/images/icons/star.svg

<svg width="18" height="16" viewBox="0 0 18 16" fill="none" xmlns="http://www.w3.org/2000/svg">
<path d="M9.89707 0.561523L11.8971 4.68652L16.3971 5.37402C16.7929 5.43652 17.0637 5.65527 17.2096 6.03027C17.3137 6.42611 17.2304 6.76986 16.9596 7.06152L13.7096 10.2803L14.4596 14.8428C14.5221 15.2386 14.3867 15.5615 14.0533 15.8115C13.72 16.0407 13.3762 16.0615 13.0221 15.874L8.99082 13.749L4.99082 15.874C4.61582 16.0615 4.26165 16.0407 3.92832 15.8115C3.61582 15.5615 3.4804 15.2386 3.52207 14.8428L4.30332 10.2803L1.05332 7.06152C0.761654 6.76986 0.67832 6.42611 0.80332 6.03027C0.92832 5.65527 1.18874 5.43652 1.58457 5.37402L6.08457 4.68652L8.08457 0.561523C8.2929 0.207357 8.59499 0.0198568 8.99082 -0.000976562C9.40749 0.0198568 9.70957 0.207357 9.89707 0.561523Z" fill="#FFB800"/>
</svg>

<svg width="18" height="16" fill="none" xmlns="http://www.w3.org/2000/svg"><path d="M9.897.562l2 4.125 4.5.687a.984.984 0 01.813.656c.104.396.02.74-.25 1.032l-3.25 3.218.75 4.563c.062.396-.073.719-.407.969-.333.229-.677.25-1.03.062L8.99 13.749l-4 2.125c-.375.187-.73.167-1.063-.063a1.032 1.032 0 01-.406-.968l.781-4.563-3.25-3.218C.762 6.77.678 6.426.803 6.03c.125-.375.386-.593.782-.656l4.5-.687 2-4.125c.208-.355.51-.542.906-.563.416.02.719.208.906.563z" fill="#FFB800"/></svg>
